X:26
T:RVW2/2/26 Sweet Primeroses
C:Sam Chiles, Willingale Doe, Essex 14 April 1904
L:1/8
Q:1/4=80
M:3/4
I:linebreak $
K:G
"^(Editorial suggestion)  " B | ce dB GA | BA GF DB | ce dB GE | FG A3 B |$ ce dB GA | 
[M:4/4] BAGF !fermata!D2 A>G |[M:3/4] FD GB dc | BA G2 z |] 



